flaticon/medical/stomach.svg

<svg xmlns="http://www.w3.org/2000/svg" width="32" height="32" viewBox="0 0 24 24">
    <path d="M 20.953125 4.757812 C 19.132812 3.015625 17.316406 2.246094 15.550781 2.476562 C 13.398438 2.757812 12.011719 4.4375 11.558594 5.074219 C 9.535156 4.597656 9.125 2.878906 9.105469 2.796875 C 9.058594 2.578125 8.84375 2.4375 8.625 2.488281 C 8.40625 2.535156 8.265625 2.75 8.3125 2.96875 C 8.332031 3.070312 8.875 5.449219 11.671875 5.929688 L 11.945312 5.972656 L 12.089844 5.738281 C 12.101562 5.71875 13.441406 3.570312 15.664062 3.28125 C 17.167969 3.085938 18.761719 3.78125 20.390625 5.347656 C 23.664062 8.484375 23.609375 12.519531 22.460938 15.25 C 21.027344 18.671875 17.835938 20.828125 14.3125 20.710938 L 14.277344 20.710938 L 14.246094 20.714844 C 14.214844 20.71875 11.246094 21.101562 7.800781 19.039062 L 7.492188 18.863281 L 7.269531 19.140625 C 7.257812 19.152344 6.984375 19.492188 6.492188 19.519531 C 5.996094 19.554688 5.40625 19.238281 4.796875 18.628906 C 4.390625 18.222656 3.824219 18.101562 3.316406 18.3125 C 2.929688 18.46875 2.035156 19.066406 2.035156 21.15625 C 2.035156 21.378906 2.214844 21.5625 2.441406 21.5625 C 2.664062 21.5625 2.847656 21.378906 2.847656 21.15625 C 2.847656 19.851562 3.25 19.21875 3.625 19.0625 C 3.828125 18.976562 4.046875 19.03125 4.21875 19.203125 C 5.019531 20 5.800781 20.378906 6.5625 20.328125 C 7.058594 20.296875 7.425781 20.078125 7.652344 19.894531 C 10.195312 21.34375 12.4375 21.5625 13.574219 21.5625 C 13.964844 21.5625 14.226562 21.539062 14.320312 21.527344 C 18.15625 21.613281 21.648438 19.289062 23.210938 15.566406 C 24.808594 11.765625 23.941406 7.625 20.953125 4.757812 Z M 20.953125 4.757812"/>
    <path d="M 2.605469 16.304688 C 4.472656 15.191406 7.269531 16.679688 7.296875 16.695312 L 7.585938 16.855469 L 7.796875 16.601562 C 8.988281 15.210938 10.808594 15.785156 10.886719 15.808594 L 11.359375 15.96875 L 11.417969 15.472656 C 11.554688 14.351562 13.140625 13.746094 13.15625 13.738281 L 13.421875 13.636719 L 13.421875 10.867188 L 13.195312 10.753906 C 12.066406 10.195312 11.996094 8.714844 11.996094 8.703125 L 11.988281 8.375 L 11.664062 8.3125 C 6.90625 7.429688 6.222656 4.105469 6.195312 3.960938 C 6.152344 3.742188 5.945312 3.59375 5.722656 3.636719 C 5.5 3.675781 5.355469 3.886719 5.394531 4.109375 C 5.425781 4.269531 6.15625 7.980469 11.21875 9.054688 C 11.300781 9.609375 11.59375 10.730469 12.609375 11.359375 L 12.609375 13.089844 C 12.109375 13.324219 11.066406 13.921875 10.714844 14.933594 C 10 14.800781 8.542969 14.714844 7.398438 15.839844 C 6.5625 15.449219 4.089844 14.476562 2.191406 15.601562 C 0.738281 16.464844 0 18.335938 0 21.15625 C 0 21.378906 0.183594 21.5625 0.40625 21.5625 C 0.632812 21.5625 0.8125 21.378906 0.8125 21.15625 C 0.8125 18.644531 1.417969 17.011719 2.605469 16.304688 Z M 2.605469 16.304688"/>
</svg>

<svg xmlns="http://www.w3.org/2000/svg" width="32" height="32" viewBox="0 0 24 24">
    <path d="M20.953 4.758c-1.82-1.742-3.637-2.512-5.402-2.281-2.153.28-3.54 1.96-3.992 2.597-2.024-.476-2.434-2.195-2.454-2.277a.4.4 0 0 0-.48-.309.405.405 0 0 0-.313.48c.02.102.563 2.481 3.36 2.962l.273.043.145-.235c.012-.02 1.351-2.168 3.574-2.457 1.504-.195 3.098.5 4.727 2.067 3.273 3.136 3.218 7.172 2.07 9.902-1.434 3.422-4.625 5.578-8.148 5.46h-.036l-.03.005c-.032.004-3 .387-6.446-1.676l-.309-.176-.222.278c-.012.011-.286.351-.778.379-.496.035-1.086-.282-1.695-.891-.406-.406-.973-.527-1.48-.317-.387.157-1.282.754-1.282 2.844a.406.406 0 1 0 .813 0c0-1.304.402-1.937.777-2.093.203-.086.422-.032.594.14.8.797 1.582 1.176 2.343 1.125.497-.031.864-.25 1.09-.433 2.543 1.449 4.785 1.668 5.922 1.668.39 0 .653-.024.746-.036 3.836.086 7.328-2.238 8.89-5.96 1.599-3.801.731-7.942-2.257-10.81zm0 0"/>
    <path d="M2.605 16.305c1.868-1.114 4.665.375 4.692.39l.289.16.21-.253c1.192-1.391 3.013-.817 3.09-.793l.473.16.059-.496c.137-1.121 1.723-1.727 1.738-1.735l.266-.101v-2.77l-.227-.113c-1.129-.559-1.199-2.04-1.199-2.05l-.008-.329-.324-.063C6.906 7.43 6.223 4.106 6.195 3.962a.404.404 0 0 0-.472-.324.405.405 0 0 0-.328.472c.03.16.761 3.871 5.824 4.946.082.554.375 1.675 1.39 2.304v1.73c-.5.235-1.543.833-1.894 1.845-.715-.133-2.172-.22-3.317.906-.835-.39-3.308-1.363-5.207-.238C.738 16.465 0 18.336 0 21.156a.406.406 0 1 0 .813 0c0-2.511.605-4.144 1.792-4.851zm0 0"/>
</svg>
